X:1
T: The Catholic Boy's Jig
C:
R:Jig
Q:180
K:Am
M:6/8
L:1/16
|:c2E2E2 G2E2E2|c2E2E2 G2A2B2|c2E2E2 G2E2D2|E2A2A2 A4B2|
c2E2E2 G2E2E2|c2E2E2 G2A2B2|c2B2c2 A2G2D2|E2A2A2 A6|
A4g2 g2^f2g2|e2c2c2 c2B2c2|e2a2a2 a2b2a2|e2d2d2 d2c2d2|
e2g2g2 g2^f2g2|e2c2c2 c2d2e2|f2e2d2 c2A2G2|E2A2A2 A6:|
